trunk/public/assets/images/icons/red/refresh/exclaim-circle.svg

<svg width="16" height="16" xmlns="http://www.w3.org/2000/svg" viewBox="0 0 16 16" shape-rendering="geometricPrecision" fill="#cb1800"><defs><mask id="a"><rect fill="#fff" width="100%" height="100%"/><path d="M17.514 2.67l-.862-.55L16.65-1h-2.866v.558c-1.334-.3-2.758.103-3.723 1.067-1.568 1.57-1.553 4.14.036 5.732.78.777 1.81 1.205 2.9 1.205 1.072 0 2.078-.415 2.832-1.168C16.585 5.64 17 4.63 17 3.557V2.67h.514zm-3.373.888c0 .22-.057.54-.332.813-.443.444-1.23.427-1.69-.034-.475-.475-.49-1.234-.036-1.69.01-.01.02-.02.033-.03v.922h2.026v.02z" fill="#000"/></mask></defs><path d="M13.114 2.537h2.538V0h-.868v1.105c-1.204-.927-2.924-.863-4.016.227-1.187 1.188-1.162 3.12.035 4.317 1.2 1.197 3.13 1.223 4.32.036.584-.584.878-1.357.877-2.128h-.86c0 .558-.207 1.103-.626 1.522-.843.842-2.23.836-3.104-.036-.87-.872-.877-2.26-.035-3.105.73-.728 1.86-.82 2.72-.27h-.982v.867z"/><path d="M8 .973c-3.865 0-6.997 3.133-6.997 7 0 3.862 3.132 6.992 6.996 6.994 3.864-.002 6.997-3.132 6.997-6.994 0-3.868-3.133-7-6.998-7zm0 12.58c-3.083-.007-5.576-2.5-5.582-5.58.006-3.085 2.5-5.58 5.58-5.585 3.083.006 5.577 2.5 5.583 5.585-.006 3.08-2.5 5.573-5.58 5.58zm.005-3.427c-.683 0-1.16.49-1.16 1.175 0 .672.464 1.173 1.147 1.173h.013c.698 0 1.148-.5 1.148-1.172-.01-.684-.462-1.174-1.148-1.174zm.736-.646l.287-5.845H6.974L7.27 9.48h1.47z" mask="url(#a)"/></svg>

<?xml version="1.0"?><!DOCTYPE svg PUBLIC "-//W3C//DTD SVG 1.1//EN" "http://www.w3.org/Graphics/SVG/1.1/DTD/svg11.dtd"><svg width="16px" height="16px" xmlns="http://www.w3.org/2000/svg" viewBox="0 0 16 16" shape-rendering="geometricPrecision" fill="#cb1800"><defs><mask id="refresh-path"><rect fill="#fff" width="100%" height="100%"/><path d="M17.514,2.671l-0.862-0.552L16.65-1h-2.866v0.558c-1.334-0.3-2.758,0.103-3.723,1.067 c-1.569,1.569-1.554,4.141,0.035,5.732c0.779,0.777,1.809,1.205,2.901,1.205c1.071,0,2.077-0.415,2.831-1.168 C16.585,5.639,17.001,4.631,17,3.557l0-0.886H17.514z M14.141,3.558c0,0.22-0.058,0.539-0.333,0.813 c-0.443,0.443-1.23,0.426-1.69-0.035c-0.475-0.475-0.49-1.234-0.036-1.689c0.011-0.011,0.021-0.022,0.033-0.031l0,0.922h2.026 V3.558z" fill="#000"/></mask></defs><path display="inline" d="M13.114,2.537h2.538L15.651,0h-0.867v1.105 c-1.204-0.927-2.924-0.863-4.016,0.227C9.581,2.52,9.606,4.451,10.803,5.649c1.201,1.198,3.131,1.224,4.319,0.037 C15.707,5.102,16.001,4.329,16,3.558l-0.859,0.001c-0.001,0.557-0.208,1.102-0.627,1.521c-0.843,0.842-2.231,0.836-3.104-0.036 c-0.871-0.872-0.877-2.26-0.035-3.105c0.729-0.727,1.86-0.818,2.721-0.268h-0.983L13.114,2.537z" fill="#cb1800"/><g mask="url(#refresh-path)"><path d="M7.999,0.973c-3.864,0-6.996,3.133-6.996,7c0.001,3.862,3.132,6.992,6.996,6.994 c3.865-0.002,6.998-3.132,6.998-6.994C14.997,4.105,11.864,0.973,7.999,0.973z M7.999,13.552 c-3.082-0.006-5.575-2.499-5.581-5.579c0.006-3.085,2.499-5.579,5.581-5.585c3.082,0.006,5.576,2.5,5.582,5.585 C13.574,11.053,11.081,13.546,7.999,13.552z M8.005,10.126c-0.683,0-1.16,0.49-1.16,1.175c0,0.671,0.464,1.172,1.147,1.172h0.013 c0.698,0,1.148-0.501,1.148-1.172C9.143,10.616,8.691,10.126,8.005,10.126z M8.741,9.48l0.286-5.845H6.974L7.27,9.48H8.741z"/></g></svg>
